public/svg/appium.svg

<svg width="24" height="24" viewBox="0 0 24 24" fill="none" xmlns="http://www.w3.org/2000/svg">
<g clip-path="url(#clip0)">
<path d="M18.908 2.37072C16.022 -0.11028 9.63683 -1.33908 4.85183 2.22312C0.362625 5.22072 0.140625 10.6987 0.140625 10.6987C0.905025 13.6963 3.93863 16.5703 9.78443 15.1705C9.09443 11.1409 10.4474 0.94632 18.908 2.37132V2.37072Z" fill="#00ACD2"/>
<path d="M15.9019 12.1148C12.7441 14.7248 3.13214 18.7088 0.139943 10.6982C-0.574057 14.4278 1.40894 20.636 6.89894 22.9826C11.7493 25.3562 16.8049 22.607 16.8049 22.607C19.0285 20.4488 20.0425 16.457 15.9019 12.1148Z" fill="#C8E9EB"/>
<path d="M10.1982 8.45401C14.0466 9.87301 22.2738 16.0218 16.8042 22.6074C20.4048 21.3588 24.627 16.581 23.922 10.6722C23.5608 5.30161 18.9084 2.37061 18.9084 2.37061C15.9198 1.53181 11.9034 2.71141 10.1982 8.45401Z" fill="#662D91"/>
</g>
<defs>
<clipPath id="clip0">
<rect width="24" height="24" fill="white"/>
</clipPath>
</defs>
</svg>

<svg xmlns="http://www.w3.org/2000/svg" width="24" height="24" fill="none" xmlns:v="https://vecta.io/nano"><g clip-path="url(#A)"><path d="M18.908 2.371C16.022-.11 9.637-1.339 4.852 2.223.363 5.221.141 10.699.141 10.699c.764 2.998 3.798 5.872 9.644 4.472-.69-4.03.663-14.224 9.124-12.799h0z" fill="#00acd2"/><path d="M15.902 12.115c-3.158 2.61-12.77 6.594-15.762-1.417-.714 3.73 1.269 9.938 6.759 12.284 4.85 2.374 9.906-.376 9.906-.376 2.224-2.158 3.238-6.15-.903-10.492z" fill="#c8e9eb"/><path d="M10.198 8.454c3.848 1.419 12.076 7.568 6.606 14.153 3.601-1.249 7.823-6.026 7.118-11.935-.361-5.371-5.014-8.302-5.014-8.302-2.989-.839-7.005.341-8.71 6.083z" fill="#662d91"/></g><defs><clipPath id="A"><path fill="#fff" d="M0 0h24v24H0z"/></clipPath></defs></svg>
